X:1
T:Shoën Rosmarin
T:Schön Rosmarin
T:Fritz Kreisler
T:Arranged by S.C.Standen
C:Fritz Kriesler
Z:Arranged by S.C.Standen
%%score 1 ( 2 3 )
L:1/8
Q:3/4=48
M:3/4
K:G
V:1 treble nm="Violin"
V:2 treble-8 nm="Guitar"
V:3 treble-8 
V:1
!p!"^Grazioso" (.uB,.D.G.B | .!open!d2) z .u^c !>!e2- | .e(.!4!^d.=d.!2!^c.!2!=c.B | %3
 .!open!d2) z (3((c/d/c/) !>!E2- | E).u!2!=F.v!2!^F.B.A.F | .D.C!<(!.A,.C.D.F | .A.c.^c.d.b.a!<)! | %7
 (ge)(.ud.B.G.E |!>(! .D.B,.^C.D.G.B | .!open!d2)!>)! z .u^c !>!e2- | .e(.!4!^d.=d.^c.=c.B | %11
 .!open!d2) z (3((vc/d/c/) !>!E2- | E).u=F.v^F.B.A.F | .D.C.A,.C.D.F | .A.c.^c.d.b.a | %15
 g(.ud.B.G.D.B,) | .vG,2 (.uB,.D.G.B | .!open!d2) z .u^c !>!e2- | .e(.^d.=d.^c.=c.B | %19
 .!open!d2) z (3((c/d/c/) !>!E2- | E).=F.^F.B.A.F | .D.C.A,!<(!.C.D.F | .A.c.^c.d.b.a!<)! | %23
 (ge)(.d.B.G.E |!>(! .D.B,.^C.D.G.B!>)! | .!open!d2) z .u^c !>!e2- | .e(.^d.=d.^c.=c.B | %27
 .!open!d2) z (3((c/d/c/) !>!E2- | E).=F.^F.B.A.F | .D.C.A,.C.D.F | .A.c.^c.d.b.a | %31
 (gd)(.B.G.D.B, | .G,2) z2!f! u!1!G2 ||"^meno mosso"{/ef} (!>!e3 .^d) e2 | %34
 z .u!4!g (!>!v!1!c3 .e) |{/de} (!>!d3 .^c) d2 | z .!4!g (!>!!1!B3 .d) | (!>!c3 .e) (!>!!2!F2- | %38
 F.!1!c) (!>!!0!D3 .c) | (!>!B3 .e) (!>!G2- | G.B)(DB)(.c.d) |{/!2!ef} (!>!e3 .^d) e2 | %42
 z .u!4!g (!>!v!1!c3 .e) |{/de} (!>!d3 .^c) d2 | z .u!4!g (!>!v!1!B3 .d) | (!>!c3 .e) (!>!E2- | %46
 E.G) (!>!F3 .A) | G6- | G(.u!0!A!>(!.!1!B.!2!c.!2!^c.!3!d)!>)! |!p!{/_e=f} (!>!ve3 .d) ue2 | %50
 z .u!4!g (!>!!1!c3 ._e) |{/d_e} (!>!d3 .^c) vd2 | z .u!4!g (!>!!1!_B3 .!2!=B) | %53
 (!>!!1!c3 ._e) (!>!!2!G2- | G.!3!_B) (!>!!2!A3 .c) | (!>!_B3 .d)"^II""^rit." (!>!!3!=f2- | %56
 f.!4!_b) (!3!a3 !3!_a) |{/g_a} (!>!u!2!g3 .f) g2 | z .!4!_b (!>!!1!_e3 .g) |{/=fg} (!>!f3 .e) f2 | %60
 z .!4!_b (!>!!1!d3 .=f) | (!>!_e3 .g) (!>!G2- | G._B) (!>!A3 .c) | v!3!_B6- | %64
 B(.u!1!=B.!2!c.!2!^c.!3!d.!4!^d) |!pp!{/ef} (!>!!2!e3 .^d) ue2 | z .ug (!>!c3 .e) | %67
{/de} (!>!d3 .^c) d2 | z .g (!>!B3 .d) | (!>!c3 .e) (!>!F2- | F.!1!c) (!>!!0!D3 .!2!c) | %71
 (!>!B3 .e) !>!G2- | G.B!<(!((DB).c.d)!<)! |{/ef} (!>!e3 .^d) e2 | z .g (!>!c3 .e) | %75
{/de} (!>!d3 .^c) d2 | z .g (!>!B3 .d) | (!>!c3 .e) (!>!E2- | E.G)!>(! (!>!F3 .A)!>)! | G6- | %80
 G2!p! (.B,.D.G.B || .!open!d2) z .^c !>!e2- | .e(.^d.=d.^c.=c.B | %83
 .!open!d2) z (3((c/d/c/) !>!E2- | E).=F.^F.B.A.F | .D.C!<(!.A,.C.D.F | .A.c.^c.d.b!<)!.a | %87
 (ge)(.d.B.G.E |!>(! .D.B,.^C.D.G.B!>)! | .!open!d2) z .^c !>!e2- | .e(.^d.=d.^c.=c.B | %91
 .!open!d2) z (3((c/d/c/) !>!E2- | E).=F.^F.B.A.F | .D.C.A,.C.D.F | .A.c.^c.d.b.a | %95
 .g(.d.B.G.D.B,) | .G,2 (.B,.D.G.B | .!open!d2) z .^c !>!e2- | .e(.^d.=d.^c.=c.B | %99
 .!open!d2) z (3((c/d/c/) !>!E2- | E).=F.^F.B.A.F | .D.C!<(!.A,.C.D.F | .A.c.^c.d.b!<)!.a | %103
 (ge)(.d.B.G.E |!>(! .D.B,.^C.D.G.B!>)! | .!open!d2) z .^c !>!e2- | .e(.^d.=d.^c.=c.B | %107
 .!open!d2) z (3((c/d/c/) !>!E2- | E).=F.^F.B.A.F |"^poco rit." .D.C.A,.C.D.F | .A.c.^c.d.b.a | %111
 g(.d!>(!.B.G.D.B,)!>)! |"^pizz." .!plus!G,2 |] %113
V:2
 z4 |!p! z2 [DGB]2 [DGB]2 | z2 [D^GB]2 [DGB]2 | z2 [EGc]2 [EGc]2 | z2 [EGc]4 | z2 [Adf]2 [Adf]2 | %6
 z2 [Acf]2 [Acf]2 | z2 [DGB]2 [DGB]2 | D2 z4 | z2 [DGB]2 [DGB]2 | z2 [D^GB]2 [DGB]2 | %11
 z2 [EGc]2 [EGc]2 | z2 [EGc]4 | z2 [Adf]2 [Adf]2 | z2 [Acf]2 [Acf]2 | z2 [DGB]2 [DGB]2 | %16
 [DGB]2 z4 | z2 [DGB]2 [DGB]2 | z2 [D^GB]2 [DGB]2 | z2 [EGc]2 [EGc]2 | z2 [EGc]4 | %21
 z2 [Adf]2 [Adf]2 | z2 [Acf]2 [Acf]2 | z2 [DGB]2 [DGB]2 | D2 z4 | z2 [DGB]2 [DGB]2 | %26
 z2 [D^GB]2 [DGB]2 | z2 [EGc]2 [EGc]2 | z2 [EGc]4 | z2 [Adf]2 [Adf]2 | z2 [Acf]2 [Acf]2 | %31
 z2 [DGB]2 [DGB]2 | [DGB]2 z4 || z2 [EGc]2 [EGc]2 | z2 [EGc]2 [EGc]2 | z2 [DGB]2 [DGB]2 | %36
 z2 [DGB]2 [DGB]2 | z2 [Adf]2 [Adf]2 | z2 [Acf]2 [Acf]2 | z2 [DGB]2 [DGB]2 | D2 z4 | %41
 z2 [EGc]2 [EGc]2 | z2 [EGc]2 [EGc]2 | z2 [DGB]2 [DGB]2 | z2 [DGB]2 [DGB]2 | z2 [Adf]2 [Adf]2 | %46
 z2 [Acf]2 [Acf]2 | z2 [DGB]2 [DGB]2 | G,2 z4 | z2 [_EGc]2 [EGc]2 | z2 [_EGc]2 [EGc]2 | %51
 z2 [=F_Bd]2 [FBd]2 | z2 [=F_Bd]2 [FBd]2 | z2 [_EGc]2 [EGc]2 | z2 [Ac]2 [Ac]2 | %55
 z2 [=F_Bd]2 [FBd]2 | z2 [=F_Bd]2 [FBd]2 | z2 [_EGc]2 [EGc]2 | z2 [_EGc]2 [EGc]2 | %59
 z2 [=F_Bd]2 [FBd]2 | z2 [=F_Bd]2 [FBd]2 | z2 [_EGc]2 [EGc]2 | z2 [Acf]2 [Acf]2 | %63
 z2 [=F_Bd]2 [FBd]2 | [=F_Bd]2 z2 =B,2 | z2 [EGc]2 [EGc]2 | z2 [EGc]2 [EGc]2 | z2 [DGB]2 [DGB]2 | %68
 z2 [DGB]2 [DGB]2 | z2 [Adf]2 [Adf]2 | z2 [Acf]2 [Acf]2 | z2 [DGB]2 [DGB]2 | D2 z4 | %73
 z2 [EGc]2 [EGc]2 | z2 [EGc]2 [EGc]2 | z2 [DGB]2 [DGB]2 | z2 [DGB]2 [DGB]2 | z2 [Adf]2 [Adf]2 | %78
 z2 [Acf]2 [Acf]2 | z2 [DGB]2 [DGB]2 | G,2 z4 || z2 [DGB]2 [DGB]2 | z2 [D^GB]2 [DGB]2 | %83
 z2 [EGc]2 [EGc]2 | z2 [EGc]4 | z2 [Adf]2 [Adf]2 | z2 [Acf]2 [Acf]2 | z2 [DGB]2 [DGB]2 | D2 z4 | %89
 z2 [DGB]2 [DGB]2 | z2 [D^GB]2 [DGB]2 | z2 [EGc]2 [EGc]2 | z2 [EGc]4 | z2 [Adf]2 [Adf]2 | %94
 z2 [Acf]2 [Acf]2 | z2 [DGB]2 [DGB]2 | [DGB]2 z4 | z2 [DGB]2 [DGB]2 | z2 [D^GB]2 [DGB]2 | %99
 z2 [EGc]2 [EGc]2 | z2 [EGc]4 | z2 [Adf]2 [Adf]2 | z2 [Acf]2 [Acf]2 | z2 [DGB]2 [DGB]2 | D2 z4 | %105
 z2 [DGB]2 [DGB]2 | z2 [D^GB]2 [DGB]2 | z2 [EGc]2 [EGc]2 | z2 [EGc]4 | z2 [Adf]2 [Adf]2 | %110
 z2 [Acf]2 [Acf]2 | z2 [DGB]2 [DGB]2 | G,2 |] %113
V:3
 x4 | G,6 | ^G,6 | A,6 | C4 ^C2 | D6 | D6 | G,6 | x6 | G,6 | ^G,6 | A,6 | C4 ^C2 | D6 | D6 | G,6 | %16
 x6 | G,6 | ^G,6 | A,6 | C4 ^C2 | D6 | D6 | G,6 | x6 | G,6 | ^G,6 | A,6 | C4 ^C2 | D6 | D6 | G,6 | %32
 x6 || C6 | A,6 | B,6 | G,6 | D6 | D6 | G,6 | x6 | C6 | A,6 | B,6 | G,6 | D6 | D6 | G,6 | x6 | C6 | %50
 A,6 | _B,6 | G,6 | A,6 | D6 | G,6 | G,6 | C6 | A,6 | _B,6 | G,6 | A,6 | D6 | G,6 | x6 | C6 | A,6 | %67
 B,6 | G,6 | D6 | D6 | G,6 | x6 | C6 | A,6 | B,6 | G,6 | D6 | D6 | G,6 | x6 || G,6 | ^G,6 | A,6 | %84
 C4 ^C2 | D6 | D6 | G,6 | x6 | G,6 | ^G,6 | A,6 | C4 ^C2 | D6 | D6 | G,6 | x6 | G,6 | ^G,6 | A,6 | %100
 C4 ^C2 | D6 | D6 | G,6 | x6 | G,6 | ^G,6 | A,6 | C4 ^C2 | D6 | D6 | G,6 | x2 |] %113

